src/r/2500-259f_box/2592_shade-medium.svg

<?xml version="1.0" encoding="UTF-8" standalone="no"?>
<!-- Created with Inkscape (http://www.inkscape.org/) -->

<svg
   xmlns:dc="http://purl.org/dc/elements/1.1/"
   xmlns:cc="http://creativecommons.org/ns#"
   xmlns:rdf="http://www.w3.org/1999/02/22-rdf-syntax-ns#"
   xmlns:svg="http://www.w3.org/2000/svg"
   xmlns="http://www.w3.org/2000/svg"
   version="1.1"
   width="1024"
   height="2048"
   id="svg3355">
  <defs
     id="defs3357" />
  <metadata
     id="metadata3360">
    <rdf:RDF>
      <cc:Work
         rdf:about="">
        <dc:format>image/svg+xml</dc:format>
        <dc:type
           rdf:resource="http://purl.org/dc/dcmitype/StillImage" />
        <dc:title></dc:title>
      </cc:Work>
    </rdf:RDF>
  </metadata>
  <path
     d="m 128,0 0,128 128,0 0,-128 z m 128,128 0,128 128,0 0,-128 z m 128,0 128,0 0,-128 -128,0 z m 128,0 0,128 128,0 0,-128 z m 128,0 128,0 0,-128 -128,0 z m 128,0 0,128 128,0 0,-128 z m 128,0 128,0 0,-128 -128,0 z m 0,128 0,128 128,0 0,-128 z m 0,128 -128,0 0,128 128,0 z m 0,128 0,128 128,0 0,-128 z m 0,128 -128,0 0,128 128,0 z m 0,128 0,128 128,0 0,-128 z m 0,128 -128,0 0,128 128,0 z m 0,128 0,128 128,0 0,-128 z m 0,128 -128,0 0,128 128,0 z m 0,128 0,128 128,0 0,-128 z m 0,128 -128,0 0,128 128,0 z m 0,128 0,128 128,0 0,-128 z m 0,128 -128,0 0,128 128,0 z m 0,128 0,128 128,0 0,-128 z m 0,128 -128,0 0,128 128,0 z m -128,0 0,-128 -128,0 0,128 z m -128,0 -128,0 0,128 128,0 z m -128,0 0,-128 -128,0 0,128 z m -128,0 -128,0 0,128 128,0 z m -128,0 0,-128 -128,0 0,128 z m -128,0 -128,0 0,128 128,0 z m 0,-128 0,-128 -128,0 0,128 z m 0,-128 128,0 0,-128 -128,0 z m 0,-128 0,-128 -128,0 0,128 z m 0,-128 128,0 0,-128 -128,0 z m 0,-128 0,-128 -128,0 0,128 z m 0,-128 128,0 0,-128 -128,0 z m 0,-128 0,-128 -128,0 0,128 z m 0,-128 128,0 0,-128 -128,0 z m 0,-128 0,-128 -128,0 0,128 z m 0,-128 128,0 0,-128 -128,0 z m 0,-128 0,-128 -128,0 0,128 z m 0,-128 128,0 0,-128 -128,0 z m 0,-128 0,-128 -128,0 0,128 z m 128,128 0,128 128,0 0,-128 z m 128,0 128,0 0,-128 -128,0 z m 128,0 0,128 128,0 0,-128 z m 128,0 128,0 0,-128 -128,0 z m 0,128 0,128 128,0 0,-128 z m 0,128 -128,0 0,128 128,0 z m 0,128 0,128 128,0 0,-128 z m 0,128 -128,0 0,128 128,0 z m 0,128 0,128 128,0 0,-128 z m 0,128 -128,0 0,128 128,0 z m 0,128 0,128 128,0 0,-128 z m 0,128 -128,0 0,128 128,0 z m 0,128 0,128 128,0 0,-128 z m 0,128 -128,0 0,128 128,0 z m -128,0 0,-128 -128,0 0,128 z m -128,0 -128,0 0,128 128,0 z m 0,-128 0,-128 -128,0 0,128 z m 0,-128 128,0 0,-128 -128,0 z m 0,-128 0,-128 -128,0 0,128 z m 0,-128 128,0 0,-128 -128,0 z m 0,-128 0,-128 -128,0 0,128 z m 0,-128 128,0 0,-128 -128,0 z m 0,-128 0,-128 -128,0 0,128 z m 0,-128 128,0 0,-128 -128,0 z"
     id="path4622"
     style="fill:#000000;fill-opacity:1;stroke:none;display:inline" />
</svg>

<?xml version="1.0" encoding="UTF-8" standalone="no"?>
<svg
   xmlns:dc="http://purl.org/dc/elements/1.1/"
   xmlns:cc="http://creativecommons.org/ns#"
   xmlns:rdf="http://www.w3.org/1999/02/22-rdf-syntax-ns#"
   xmlns:svg="http://www.w3.org/2000/svg"
   xmlns="http://www.w3.org/2000/svg"
   version="1.1"
   width="1024"
   height="2048"
   id="svg3355">
  <defs
     id="defs3357" />
  <metadata
     id="metadata3360">
    <rdf:RDF>
      <cc:Work
         rdf:about="">
        <dc:format>image/svg+xml</dc:format>
        <dc:type
           rdf:resource="http://purl.org/dc/dcmitype/StillImage" />
        <dc:title></dc:title>
      </cc:Work>
    </rdf:RDF>
  </metadata>
  <path
     d="M 128,0 V 128 H 256 V 0 Z M 256,128 V 256 H 384 V 128 Z m 128,0 H 512 V 0 H 384 Z m 128,0 V 256 H 640 V 128 Z m 128,0 H 768 V 0 H 640 Z m 128,0 V 256 H 896 V 128 Z m 128,0 h 128 V 0 H 896 Z m 0,128 v 128 h 128 V 256 Z m 0,128 H 768 v 128 h 128 z m 0,128 v 128 h 128 V 512 Z m 0,128 H 768 v 128 h 128 z m 0,128 v 128 h 128 V 768 Z m 0,128 H 768 v 128 h 128 z m 0,128 v 128 h 128 v -128 z m 0,128 H 768 v 128 h 128 z m 0,128 v 128 h 128 v -128 z m 0,128 H 768 v 128 h 128 z m 0,128 v 128 h 128 v -128 z m 0,128 H 768 v 128 h 128 z m 0,128 v 128 h 128 v -128 z m 0,128 H 768 v 128 h 128 z m -128,0 V 1792 H 640 v 128 z m -128,0 H 512 v 128 h 128 z m -128,0 V 1792 H 384 v 128 z m -128,0 H 256 v 128 h 128 z m -128,0 V 1792 H 128 v 128 z m -128,0 H 0 v 128 h 128 z m 0,-128 V 1664 H 0 v 128 z m 0,-128 H 256 V 1536 H 128 Z m 0,-128 V 1408 H 0 v 128 z m 0,-128 H 256 V 1280 H 128 Z m 0,-128 V 1152 H 0 v 128 z m 0,-128 H 256 V 1024 H 128 Z m 0,-128 V 896 H 0 v 128 z m 0,-128 H 256 V 768 H 128 Z m 0,-128 V 640 H 0 v 128 z m 0,-128 H 256 V 512 H 128 Z m 0,-128 V 384 H 0 v 128 z m 0,-128 H 256 V 256 H 128 Z m 0,-128 V 128 H 0 V 256 Z M 256,384 V 512 H 384 V 384 Z m 128,0 H 512 V 256 H 384 Z m 128,0 V 512 H 640 V 384 Z m 128,0 H 768 V 256 H 640 Z m 0,128 V 640 H 768 V 512 Z m 0,128 H 512 v 128 h 128 z m 0,128 V 896 H 768 V 768 Z m 0,128 H 512 v 128 h 128 z m 0,128 v 128 h 128 v -128 z m 0,128 H 512 v 128 h 128 z m 0,128 v 128 h 128 v -128 z m 0,128 H 512 v 128 h 128 z m 0,128 v 128 h 128 v -128 z m 0,128 H 512 v 128 h 128 z m -128,0 V 1536 H 384 v 128 z m -128,0 H 256 v 128 h 128 z m 0,-128 V 1408 H 256 v 128 z m 0,-128 H 512 V 1280 H 384 Z m 0,-128 V 1152 H 256 v 128 z m 0,-128 H 512 V 1024 H 384 Z m 0,-128 V 896 H 256 v 128 z m 0,-128 H 512 V 768 H 384 Z m 0,-128 V 640 H 256 v 128 z m 0,-128 H 512 V 512 H 384 Z"
     id="path4622"
     style="display:inline;fill:#000000;fill-opacity:1;stroke:none;stroke-width:1" />
</svg>
